material/.icons/material/alert-octagon.svg

<svg xmlns="http://www.w3.org/2000/svg" viewBox="0 0 24 24"><path d="M13 13h-2V7h2m-1 10.3a1.3 1.3 0 01-1.3-1.3 1.3 1.3 0 011.3-1.3 1.3 1.3 0 011.3 1.3 1.3 1.3 0 01-1.3 1.3M15.73 3H8.27L3 8.27v7.46L8.27 21h7.46L21 15.73V8.27L15.73 3z"/></svg>

<?xml version="1.0" encoding="UTF-8"?><!DOCTYPE svg PUBLIC "-//W3C//DTD SVG 1.1//EN" "http://www.w3.org/Graphics/SVG/1.1/DTD/svg11.dtd"><svg xmlns="http://www.w3.org/2000/svg" xmlns:xlink="http://www.w3.org/1999/xlink" version="1.1" id="mdi-alert-octagon" width="24" height="24" viewBox="0 0 24 24"><path d="M13,13H11V7H13M12,17.3A1.3,1.3 0 0,1 10.7,16A1.3,1.3 0 0,1 12,14.7A1.3,1.3 0 0,1 13.3,16A1.3,1.3 0 0,1 12,17.3M15.73,3H8.27L3,8.27V15.73L8.27,21H15.73L21,15.73V8.27L15.73,3Z" /></svg>
